X:222
%%composerspace -12
%%musicspace -5
%%titlespace -18
T:Cantina Band
C:John Williams
M:4/4
L:1/8
K:Dm
"Dm"A2d2 A2d2 | Ad2(A A)^GA2 | A^GA(=G G)^FGF | =F4 D4 | 
"Dm"A2d2 A2d2 | Ad2(A A)^GA2 | "C"G2(G2 G)^FG2 | "Am"cB2(A A)G3 | 
"Dm"A2d2 A2d2 | Ad2(A A)^GA2 | "C"c2 (c2 c)AG2 | "Dm"F4 D4 | 
"Dm"D4 F4 | "F"A4 c4 | "Gm"_e2d2 "C7"^GA3 | "F"F8 ||
"Dm"zA2F A4 | zA2FA4 | zA2F ^GA3 | F4 D4 | 
"Dm"zA2F A4 | zA2FA4 | zA2F ^GA3 | "C"G4 "Am"C4 | 
"Dm"zA2F A4 | zA2FA4 | zA2F ^GA3 | F4 D4 | 
"Bb"B,DF2 "G7"=B,DF2 | "Am"^GA3 "Dm"D4 | "Bb"DFBd "C7"^GA3 | "F"F8 |]

%%newpage
%%scale 0.8

